resources/svg/envelope-o.svg

<svg xmlns="http://www.w3.org/2000/svg" viewBox="0 0 15 15" fill="none"><path d="M0.5 4.5L7.5 8.5L14.5 4.5M1.5 1.5H13.5C14.0523 1.5 14.5 1.94772 14.5 2.5V12.5C14.5 13.0523 14.0523 13.5 13.5 13.5H1.5C0.947716 13.5 0.5 13.0523 0.5 12.5V2.5C0.5 1.94772 0.947715 1.5 1.5 1.5Z" stroke="black"/></svg>

<svg xmlns="http://www.w3.org/2000/svg" viewBox="0 0 15 15" fill="none"><path d="M.5 4.5l7 4 7-4m-13-3h12a1 1 0 011 1v10a1 1 0 01-1 1h-12a1 1 0 01-1-1v-10a1 1 0 011-1z" stroke="currentColor"/></svg>
